svgs/solid/ring-diamond.svg

<svg xmlns="http://www.w3.org/2000/svg" viewBox="0 0 384 512"><!--! Font Awesome Pro 6.1.2 by @fontawesome - https://fontawesome.com License - https://fontawesome.com/license (Commercial License) Copyright 2022 Fonticons, Inc. --><path d="M122.5 13.27C126.6 5.136 134.9 0 144 0H240C249.1 0 257.4 5.136 261.5 13.27L285.5 61.27C289 68.35 288.8 76.73 284.1 83.66L254.6 138.4C329.9 164.4 384 235.9 384 320C384 426 298 512 192 512C85.96 512 0 426 0 320C0 235.9 54.12 164.4 129.4 138.4L99.02 83.66C95.17 76.73 94.99 68.35 98.53 61.27L122.5 13.27zM192 192C121.3 192 64 249.3 64 320C64 390.7 121.3 448 192 448C262.7 448 320 390.7 320 320C320 249.3 262.7 192 192 192z"/></svg>

<svg xmlns="http://www.w3.org/2000/svg" viewBox="0 0 384 512"><!--! Font Awesome Pro 6.2.0 by @fontawesome - https://fontawesome.com License - https://fontawesome.com/license (Commercial License) Copyright 2022 Fonticons, Inc. --><path d="M122.5 13.3C126.6 5.1 134.9 0 144 0h96c9.1 0 17.4 5.1 21.5 13.3l24 48c3.5 7.1 3.4 15.5-.5 22.4l-30.4 54.8C329.9 164.4 384 235.9 384 320c0 106-86 192-192 192S0 426 0 320c0-84.1 54.1-155.6 129.4-181.6L99 83.7c-3.8-6.9-4-15.3-.5-22.4l24-48zM192 192c-70.7 0-128 57.3-128 128s57.3 128 128 128s128-57.3 128-128s-57.3-128-128-128z"/></svg>
